assets/spark/icons/TargetOutline.svg

<svg viewBox="0 0 24 24" xmlns="http://www.w3.org/2000/svg">
    <path fill-rule="evenodd" clip-rule="evenodd" d="M12.0002 1.99976C12.5525 1.99977 13.0002 2.44749 13.0002 2.99978L13.0001 4.83757C16.1934 5.27934 18.7205 7.80643 19.1623 10.9997L20.9998 10.9998C21.5521 10.9998 21.9998 11.4475 21.9998 11.9998C21.9998 12.552 21.5521 12.9998 20.9998 12.9997L19.1623 12.9997C18.7205 16.1931 16.1934 18.7202 13.0001 19.1619L13.0002 20.9997C13.0002 21.552 12.5525 21.9997 12.0002 21.9998C11.4479 21.9998 11.0002 21.5521 11.0002 20.9998L11.0001 19.1619C7.8068 18.7202 5.2797 16.1931 4.83793 12.9997L3 12.9997C2.44772 12.9998 2 12.552 2 11.9998C2 11.4475 2.44771 10.9998 3 10.9998L4.83793 10.9997C5.27969 7.80641 7.8068 5.27932 11.0001 4.83756L11.0002 2.99974C11.0002 2.44745 11.4479 1.99974 12.0002 1.99976ZM12.0001 6.76898C9.11124 6.76898 6.76934 9.11087 6.76934 11.9997C6.76934 14.8886 9.11124 17.2305 12.0001 17.2305C14.889 17.2305 17.2309 14.8886 17.2309 11.9997C17.2309 9.11087 14.889 6.76898 12.0001 6.76898ZM10.0001 12.0268C10.0001 10.9222 10.8955 10.0268 12.0001 10.0268C13.1046 10.0268 14.0001 10.9222 14.0001 12.0268C14.0001 13.1314 13.1046 14.0268 12.0001 14.0268C10.8955 14.0268 10.0001 13.1314 10.0001 12.0268Z"/>
</svg>

<svg viewBox="0 0 24 24" xmlns="http://www.w3.org/2000/svg">
  <path d="m12,2c.55,0,1,.45,1,1v1.84c3.19.44,5.72,2.97,6.16,6.16h1.84c.55,0,1,.45,1,1s-.45,1-1,1h-1.84c-.44,3.19-2.97,5.72-6.16,6.16v1.84c0,.55-.45,1-1,1-.55,0-1-.45-1-1v-1.84c-3.19-.44-5.72-2.97-6.16-6.16h-1.84c-.55,0-1-.45-1-1s.45-1,1-1h1.84c.44-3.19,2.97-5.72,6.16-6.16v-1.84c0-.55.45-1,1-1Zm0,4.77c-2.89,0-5.23,2.34-5.23,5.23s2.34,5.23,5.23,5.23,5.23-2.34,5.23-5.23-2.34-5.23-5.23-5.23Zm-2,5.26c0-1.1.9-2,2-2s2,.9,2,2-.9,2-2,2-2-.9-2-2Z"/>
</svg>
